assets/components_previews/media/dark/audio.svg

<svg xmlns="http://www.w3.org/2000/svg" width="320" height="232" fill="none" viewBox="0 0 320 232"><path fill="#5F43D0" d="M158.322 102.626c1.145-.879 2.507-1.593 3.959-.979 1.439.608 1.901 2.074 2.101 3.516.204 1.478.204 3.513.204 6.043v9.593c0 2.53 0 4.565-.204 6.043-.2 1.442-.662 2.908-2.101 3.516-1.452.614-2.814-.1-3.959-.979-1.171-.899-2.658-2.418-4.408-4.205-.899-.918-1.496-1.362-2.1-1.612-.608-.251-1.346-.357-2.634-.357-1.115 0-2.111 0-2.866-.079-.792-.082-1.527-.261-2.188-.712-1.259-.859-1.741-2.118-1.924-3.274-.136-.863-.121-1.81-.108-2.573v-1.129c-.013-.763-.028-1.71.108-2.573.183-1.156.665-2.415 1.924-3.274.661-.451 1.396-.63 2.188-.712.755-.079 1.751-.079 2.866-.079 1.288 0 2.026-.106 2.634-.357.604-.25 1.201-.694 2.1-1.612 1.75-1.787 3.237-3.306 4.408-4.205"/><path fill="#5F43D0" fill-rule="evenodd" d="M167.32 109.675a1.667 1.667 0 0 1 2.336.314 9.9 9.9 0 0 1 2.008 6.011 9.9 9.9 0 0 1-2.008 6.011 1.666 1.666 0 1 1-2.65-2.022 6.56 6.56 0 0 0 1.325-3.989c0-1.525-.502-2.91-1.325-3.989a1.666 1.666 0 0 1 .314-2.336" clip-rule="evenodd"/><path fill="#5F43D0" fill-rule="evenodd" d="M172.205 106.437a1.667 1.667 0 0 1 2.355.104c2.339 2.554 3.771 5.846 3.771 9.459s-1.432 6.905-3.771 9.459a1.667 1.667 0 0 1-2.458-2.251c1.83-2 2.895-4.506 2.895-7.208s-1.065-5.208-2.895-7.208a1.666 1.666 0 0 1 .103-2.355" clip-rule="evenodd"/></svg>

<svg width="320" height="232" viewBox="0 0 320 232" fill="none" xmlns="http://www.w3.org/2000/svg">
<path d="M158.322 102.626C159.467 101.747 160.829 101.033 162.281 101.647C163.72 102.255 164.182 103.721 164.382 105.163C164.586 106.641 164.586 108.676 164.586 111.206V120.799C164.586 123.329 164.586 125.364 164.382 126.842C164.182 128.284 163.72 129.75 162.281 130.358C160.829 130.972 159.467 130.258 158.322 129.379C157.151 128.48 155.664 126.961 153.914 125.174C153.015 124.256 152.418 123.812 151.814 123.562C151.206 123.311 150.468 123.205 149.18 123.205C148.065 123.205 147.069 123.205 146.314 123.126C145.522 123.044 144.787 122.865 144.126 122.414C142.867 121.555 142.385 120.296 142.202 119.14C142.066 118.277 142.081 117.33 142.094 116.567V115.438C142.081 114.675 142.066 113.728 142.202 112.865C142.385 111.709 142.867 110.45 144.126 109.591C144.787 109.14 145.522 108.961 146.314 108.879C147.069 108.8 148.065 108.8 149.18 108.8C150.468 108.8 151.206 108.694 151.814 108.443C152.418 108.193 153.015 107.749 153.914 106.831C155.664 105.044 157.151 103.525 158.322 102.626Z" fill="#5F43D0"/>
<path fill-rule="evenodd" clip-rule="evenodd" d="M167.32 109.675C168.052 109.117 169.098 109.257 169.656 109.989C170.917 111.642 171.664 113.736 171.664 116C171.664 118.264 170.917 120.358 169.656 122.011C169.098 122.743 168.052 122.884 167.32 122.325C166.588 121.767 166.447 120.721 167.006 119.989C167.829 118.91 168.331 117.525 168.331 116C168.331 114.475 167.829 113.09 167.006 112.011C166.447 111.279 166.588 110.233 167.32 109.675Z" fill="#5F43D0"/>
<path fill-rule="evenodd" clip-rule="evenodd" d="M172.205 106.437C172.884 105.816 173.938 105.862 174.56 106.541C176.899 109.095 178.331 112.387 178.331 116C178.331 119.613 176.899 122.905 174.56 125.459C173.938 126.138 172.884 126.184 172.205 125.563C171.526 124.941 171.48 123.887 172.102 123.208C173.932 121.208 174.997 118.702 174.997 116C174.997 113.298 173.932 110.792 172.102 108.792C171.48 108.113 171.526 107.059 172.205 106.437Z" fill="#5F43D0"/>
</svg>
